packages/dnb-eufemia/assets/icons/file_loupe.svg

<svg width="16" height="16" viewBox="0 0 16 16" fill="none" xmlns="http://www.w3.org/2000/svg">
<path d="M8.61958 1.35383L8.04718 1.83846L8.61958 1.35383ZM9.0176 2.98463C9.28526 3.30075 9.7585 3.34005 10.0746 3.07239C10.3908 2.80474 10.43 2.3315 10.1624 2.01537L9.0176 2.98463ZM5 15.75C5.41421 15.75 5.75 15.4142 5.75 15C5.75 14.5858 5.41421 14.25 5 14.25V15.75ZM14.4697 15.5303C14.7626 15.8232 15.2374 15.8232 15.5303 15.5303C15.8232 15.2374 15.8232 14.7626 15.5303 14.4697L14.4697 15.5303ZM13.9758 12.9151C13.6829 12.6222 13.208 12.6222 12.9151 12.9151C12.6222 13.208 12.6222 13.6829 12.9151 13.9758L13.9758 12.9151ZM2 1.75H7.85638V0.25H2V1.75ZM1.75 14V2H0.25V14H1.75ZM8.04718 1.83846L9.0176 2.98463L10.1624 2.01537L9.19197 0.869202L8.04718 1.83846ZM5 14.25H2V15.75H5V14.25ZM0.25 14C0.25 14.9665 1.0335 15.75 2 15.75V14.25C1.86193 14.25 1.75 14.1381 1.75 14H0.25ZM7.85638 1.75C7.92989 1.75 7.99968 1.78235 8.04718 1.83846L9.19197 0.869202C8.85946 0.476478 8.37096 0.25 7.85638 0.25V1.75ZM2 0.25C1.0335 0.25 0.25 1.0335 0.25 2H1.75C1.75 1.86193 1.86193 1.75 2 1.75V0.25ZM12.2045 9.47727C12.2045 10.9835 10.9835 12.2045 9.47727 12.2045V13.7045C11.8119 13.7045 13.7045 11.8119 13.7045 9.47727H12.2045ZM9.47727 12.2045C7.97104 12.2045 6.75 10.9835 6.75 9.47727H5.25C5.25 11.8119 7.14261 13.7045 9.47727 13.7045V12.2045ZM6.75 9.47727C6.75 7.97104 7.97104 6.75 9.47727 6.75V5.25C7.14261 5.25 5.25 7.14261 5.25 9.47727H6.75ZM9.47727 6.75C10.9835 6.75 12.2045 7.97104 12.2045 9.47727H13.7045C13.7045 7.14261 11.8119 5.25 9.47727 5.25V6.75ZM12.9151 13.9758L14.4697 15.5303L15.5303 14.4697L13.9758 12.9151L12.9151 13.9758Z" fill="black"/>
</svg>

<svg width="16" height="16" viewBox="0 0 16 16" fill="none" xmlns="http://www.w3.org/2000/svg"><path d="m8.62 1.354-.573.484.573-.484Zm.398 1.63a.75.75 0 1 0 1.144-.969l-1.144.97ZM5 15.75a.75.75 0 0 0 0-1.5v1.5Zm9.47-.22a.75.75 0 1 0 1.06-1.06l-1.06 1.06Zm-.494-2.615a.75.75 0 0 0-1.06 1.06l1.06-1.06ZM2 1.75h5.856V.25H2v1.5ZM1.75 14V2H.25v12h1.5ZM8.047 1.838l.97 1.147 1.145-.97L9.192.87l-1.145.97ZM5 14.25H2v1.5h3v-1.5ZM.25 14c0 .966.784 1.75 1.75 1.75v-1.5a.25.25 0 0 1-.25-.25H.25ZM7.856 1.75a.25.25 0 0 1 .191.088L9.192.87A1.75 1.75 0 0 0 7.856.25v1.5ZM2 .25A1.75 1.75 0 0 0 .25 2h1.5A.25.25 0 0 1 2 1.75V.25Zm10.204 9.227a2.727 2.727 0 0 1-2.727 2.727v1.5a4.227 4.227 0 0 0 4.227-4.227h-1.5Zm-2.727 2.727A2.727 2.727 0 0 1 6.75 9.477h-1.5a4.227 4.227 0 0 0 4.227 4.227v-1.5ZM6.75 9.477A2.727 2.727 0 0 1 9.477 6.75v-1.5A4.227 4.227 0 0 0 5.25 9.477h1.5ZM9.477 6.75a2.727 2.727 0 0 1 2.727 2.727h1.5A4.227 4.227 0 0 0 9.477 5.25v1.5Zm3.438 7.226 1.555 1.554 1.06-1.06-1.554-1.555-1.06 1.06Z" fill="#000"/></svg>
